icon-themes/breeze_svg/cmd/32/viewformasgrid.svg

<svg viewBox="0 0 32 32" xmlns="http://www.w3.org/2000/svg"><path d="m6.0019531 4v9h1 4.9999999 1 6 1 5 1v-8-1h-18.9999999zm1 1h4.9999999v3h-4.9999999zm5.9999999 0h6v3h-6zm7 0h5v3h-5zm-12.9999999 4h4.9999999v3h-4.9999999zm5.9999999 0h6v3h-6zm7 0h5v3h-5zm-4.001953 6a12 3.5 0 0 0 -12 3.5v.5 6a12 3 0 0 0 12 3 12 3 0 0 0 12-3v-6.5a12 3.5 0 0 0 -12-3.5zm0 1a11 2.5 0 0 1 11 2.5 11 2.5 0 0 1 -10.222656 2.494141 11 2.5 0 0 1 -.777344.005859 11 2.5 0 0 1 -11-2.5 11 2.5 0 0 1 11-2.5zm11 4.191406v4.808594a11 2 0 0 1 -11 2 11 2 0 0 1 -11-2v-4.804688a12 3 0 0 0 9.966797 1.791016 12 3.5 0 0 0 .265625.00586 12 3 0 0 0 .042969.001953 12 3.5 0 0 0 .724609.005859 12 3 0 0 0 11-1.808594z" fill="#4d4d4d"/></svg>

<svg xmlns="http://www.w3.org/2000/svg" viewBox="0 0 32 32">
 <path 
     style="fill:#4d4d4d" 
     d="M 6.0019531 4 L 6.0019531 13 L 7.0019531 13 L 12.001953 13 L 13.001953 13 L 19.001953 13 L 20.001953 13 L 25.001953 13 L 26.001953 13 L 26.001953 5 L 26.001953 4 L 7.0019531 4 L 6.0019531 4 z M 7.0019531 5 L 12.001953 5 L 12.001953 8 L 7.0019531 8 L 7.0019531 5 z M 13.001953 5 L 19.001953 5 L 19.001953 8 L 13.001953 8 L 13.001953 5 z M 20.001953 5 L 25.001953 5 L 25.001953 8 L 20.001953 8 L 20.001953 5 z M 7.0019531 9 L 12.001953 9 L 12.001953 12 L 7.0019531 12 L 7.0019531 9 z M 13.001953 9 L 19.001953 9 L 19.001953 12 L 13.001953 12 L 13.001953 9 z M 20.001953 9 L 25.001953 9 L 25.001953 12 L 20.001953 12 L 20.001953 9 z M 16 15 A 12 3.5 0 0 0 4 18.5 L 4 19 L 4 25 A 12 3 0 0 0 16 28 A 12 3 0 0 0 28 25 L 28 18.5 A 12 3.5 0 0 0 16 15 z M 16 16 A 11 2.5 0 0 1 27 18.5 A 11 2.5 0 0 1 16.777344 20.994141 A 11 2.5 0 0 1 16 21 A 11 2.5 0 0 1 5 18.5 A 11 2.5 0 0 1 16 16 z M 27 20.191406 L 27 25 A 11 2 0 0 1 16 27 A 11 2 0 0 1 5 25 L 5 20.195312 A 12 3 0 0 0 14.966797 21.986328 A 12 3.5 0 0 0 15.232422 21.992188 A 12 3 0 0 0 15.275391 21.994141 A 12 3.5 0 0 0 16 22 A 12 3 0 0 0 27 20.191406 z "
     />
</svg>
